src/svg/trail-sign.svg

<svg xmlns="http://www.w3.org/2000/svg" class="ionicon" viewBox="0 0 512 512"><title>Trail Sign</title><path d="M491.31 324.69L432 265.37a31.8 31.8 0 00-22.63-9.37H272v-32h144a32 32 0 0032-32V96a32 32 0 00-32-32H272V48a16 16 0 00-32 0v16H102.63A31.8 31.8 0 0080 73.37l-59.31 59.32a16 16 0 000 22.62L80 214.63a31.8 31.8 0 0022.63 9.37H240v32H96a32 32 0 00-32 32v96a32 32 0 0032 32h144v48a16 16 0 0032 0v-48h137.37a31.8 31.8 0 0022.63-9.37l59.31-59.32a16 16 0 000-22.62z" fill="currentColor"/></svg>

<svg xmlns="http://www.w3.org/2000/svg" width="512" height="512" viewBox="0 0 512 512"><title>ionicons-v5-l</title><path d="M491.31,324.69,432,265.37A31.8,31.8,0,0,0,409.37,256H272V224H416a32,32,0,0,0,32-32V96a32,32,0,0,0-32-32H272V48a16,16,0,0,0-32,0V64H102.63A31.8,31.8,0,0,0,80,73.37L20.69,132.69a16,16,0,0,0,0,22.62L80,214.63A31.8,31.8,0,0,0,102.63,224H240v32H96a32,32,0,0,0-32,32v96a32,32,0,0,0,32,32H240v48a16,16,0,0,0,32,0V416H409.37A31.8,31.8,0,0,0,432,406.63l59.31-59.32A16,16,0,0,0,491.31,324.69Z"/></svg>
